X: 7613
T:Polkett fr J\"amtland (Hoppvals)
R:Polkett
C:e. Kristian Oskarsson
O:Sweden
N:the ornament in bar 2 is a trill
M:2/4
L:1/16
A:J\"amtland
K:D
FG |\
A2BA A2B2 | ~B2A2 A2FG | A2ff fed2 | e8 |\
E3E  E2E2 | A3A A2A2 | c2Ac e2c2 | d6 :|
|: ef |\
g2ag f2de | f2gf e2Ac | e2Ac e2Ac | g2ag fed2 |\
f2 (3gfe f2de | f2gf e2ed | c2Ac e2c2 | d6 :|
